X:39
T:Lányok, lányok
M:4/4
L:1/4
K:D
D/D/G/F/ E/D/F/A/ | G B A E | D2 D2 |
A/A/d/c/ B/A/c/e/ | d>e d<B | A2 A2 |
A/A/d/c/ B/A/c/e/ | d>e d<B | A2 F2 |
D/D/G/F/ E/D/F/A/ | G B A<E | D2 D2 |

